X:1
T:City of Light, 76.76.74
T:City of Light, 76.76.74
T:Arthur Vennell Coster (1864-1931)
T:Public Domain Courtesy of the Cyber Hymnal™
C:Arthur Vennell Coster (1864-1931)
Z:Public Domain
Z:Courtesy of the Cyber Hymnal™
%%score ( 1 2 ) ( 3 4 )
L:1/8
Q:1/4=115
M:4/4
K:Ab
V:1 treble 
V:2 treble 
V:3 bass 
V:4 bass 
V:1
 E2 | [A,C]2 [CE]2 [EA]2 [EB]2 | [Ec]4 [Ec]2 [_Gc]2 | [Fe]2 [Fd]2 [_FA]2 [Fd]2 | [Ec]6 [Ec]2 | %5
 [Ee]2 [Ee]2 [EB]2 [EB]2 | [Ec]4 [EA]2 [Ec]2 | [EB]2 [Ee]2 [CE]2 [=DF]2 | E6 [DE]2 | %9
 [CA]2 [CA]2 [Ec]2 [_Ge]2 | [Fe]4 d4 | [Ec]4 [EA]2 [GB]2 | A6 |] %13
V:2
 E2 | x8 | x8 | x8 | x8 | x8 | x8 | x8 | E6 x2 | x8 | x4 F2 _F2 | x8 | A6 |] %13
V:3
 E,2 | [A,,E,]2 [A,,A,]2 [C,A,]2 [E,G,]2 | A,4 [A,,A,]2 [A,,A,]2 | %3
 [D,A,]2 [D,A,]2 [D,A,]2 [D,A,]2 | [A,,A,]6 A,2 | [G,B,]2 [G,B,]2 [E,G,]2 [E,G,]2 | %6
 [A,,A,]4 [C,A,]2 [A,,A,]2 | [B,,G,]2 [B,,G,]2 [B,,A,]2 [B,,A,]2 | [E,G,]6 [E,G,]2 | %9
 [A,,A,]2 [A,,A,]2 A,2 [C,A,]2 | [D,A,]4 [D,A,]4 | [E,A,]4 [E,C]2 [E,D]2 | [A,,A,C]6 |] %13
V:4
 E,2 | x8 | A,4 x4 | x8 | x6 A,2 | x8 | x8 | x8 | x8 | x4 A,2 x2 | x8 | x8 | x6 |] %13

